X:1
T:[ID 7-116]
T:[ID 7-116]
T:Bezeichnung standardisiert: Quadrille Quadrillge
T:Urheber unbekannt Datum in der hier transkribierten schriftlichen Quelle: 1776 - 1791
C:Urheber unbekannt
C:Datum in der hier transkribierten schriftlichen Quelle: 1776 - 1791
L:1/8
M:2/4
K:G
V:1 treble 
V:1
 gd BG | AF D2 | c/B/A/G/ FA | GDGB | BGBd | ^cdeA | ad f/e/d/^c/ | d2 d2 :: fa g/f/e/d/ | gd d2 | %10
 gb c'/b/a/g/ | ad dc | B2 d2 | A2 c2 | B/d/B/G/ A/c/A/F/ | G2 G2 :: DG G2 | GB B2 | Bd d/c/B | %19
 c2 A2 | DF F2 | FA A2 | Ac c/B/A | B2 B2 :: dB dB | e/d/c/B/ c2 | cA cA | d/c/B/A/ B2 | Bd Ac | %29
 Bgdc | B2 A2 | G2 G2 :| %32

